public/website-favicon/generic/favicon.svg

<?xml version="1.0" encoding="UTF-8" standalone="no"?>
<!DOCTYPE svg PUBLIC "-//W3C//DTD SVG 1.1//EN" "http://www.w3.org/Graphics/SVG/1.1/DTD/svg11.dtd">
<!-- Created with Vectornator (http://vectornator.io/) -->
<svg height="100%" stroke-miterlimit="10" style="fill-rule:nonzero;clip-rule:evenodd;stroke-linecap:round;stroke-linejoin:round;" version="1.1" viewBox="0 0 1060 1060" width="100%" xml:space="preserve" xmlns="http://www.w3.org/2000/svg" xmlns:vectornator="http://vectornator.io" xmlns:xlink="http://www.w3.org/1999/xlink">
<defs>
<linearGradient gradientTransform="matrix(1.33644 0 0 1.33644 -154.261 -16.7661)" gradientUnits="userSpaceOnUse" id="LinearGradient" x1="179" x2="845" y1="512" y2="512">
<stop offset="0" stop-color="#ffbd59"/>
<stop offset="1" stop-color="#ff6b11"/>
</linearGradient>
<linearGradient gradientTransform="matrix(1.33644 0 0 1.33644 -154.261 -16.7661)" gradientUnits="userSpaceOnUse" id="LinearGradient_2" x1="178.274" x2="844.274" y1="366.436" y2="366.436">
<stop offset="0" stop-color="#ffbd59"/>
<stop offset="1" stop-color="#ff6b11"/>
</linearGradient>
<linearGradient gradientTransform="matrix(1.33644 0 0 1.33644 -154.261 -16.7661)" gradientUnits="userSpaceOnUse" id="LinearGradient_3" x1="-1.154" x2="664.846" y1="700.221" y2="700.221">
<stop offset="0" stop-color="#ff1148"/>
<stop offset="1" stop-color="#ee3cff"/>
</linearGradient>
<linearGradient gradientTransform="matrix(1.33644 0 0 1.33644 -154.261 -16.7661)" gradientUnits="userSpaceOnUse" id="LinearGradient_4" x1="341.43" x2="1007.43" y1="698.728" y2="698.728">
<stop offset="0" stop-color="#00d2ff"/>
<stop offset="1" stop-color="#2aff75"/>
</linearGradient>
</defs>
<g id="Layer-1" vectornator:layerName="Layer 1">
<g opacity="1" vectornator:layerName="Group 4">
<path d="M95 530C95 289.756 289.756 95 530 95C770.244 95 965 289.756 965 530C965 770.244 770.244 965 530 965C289.756 965 95 770.244 95 530Z" fill="none" opacity="1" stroke="#310024" stroke-linecap="round" stroke-linejoin="round" stroke-width="40" vectornator:layerName="path"/>
<g opacity="1" vectornator:layerName="path">
<clipPath clip-rule="nonzero" id="ClipPath">
<path d="M95 530C95 289.756 289.756 95 530 95C770.244 95 965 289.756 965 530C965 770.244 770.244 965 530 965C289.756 965 95 770.244 95 530Z"/>
</clipPath>
<g clip-path="url(#ClipPath)">
<path d="M527.106 27.9505C338.76 28.7713 178.363 146.491 114.112 312.051C97.7018 374.653 87.7724 439.892 85.464 507.089C85.865 512.311 86.2227 517.549 86.7987 522.721C86.2507 523 85.7316 523.328 85.1845 523.611C85.1071 528.469 84.9636 533.308 84.9636 538.185C84.9636 862.214 258.269 1145.53 517.094 1301.2C517.983 1300.67 518.934 1300.24 519.82 1299.7C524.182 1302.29 528.714 1304.59 533.171 1307.04C797.393 1152.68 975.034 866.274 975.034 538.185C975.034 537.124 974.983 536.075 974.983 535.015C973.326 534.026 971.754 532.922 970.081 531.955C972.018 517.395 973.029 502.564 973.53 487.618C970.514 433.814 962.774 381.29 950.616 330.465C890.964 153.906 723.711 27.095 527.106 27.9505Z" fill="url(#LinearGradient)" fill-rule="nonzero" opacity="0.332" stroke="#310024" stroke-linecap="round" stroke-linejoin="round" stroke-width="40" vectornator:layerName="path"/>
<g opacity="1" vectornator:layerName="path">
<path d="M527.106 27.9505C338.76 28.7713 178.363 146.491 114.112 312.051C97.7018 374.653 87.7724 439.892 85.464 507.089C85.865 512.311 86.2227 517.549 86.7987 522.721C86.2507 523 85.7316 523.328 85.1845 523.611C85.1071 528.469 84.9636 533.308 84.9636 538.185C84.9636 862.214 258.269 1145.53 517.094 1301.2C517.983 1300.67 518.934 1300.24 519.82 1299.7C524.182 1302.29 528.714 1304.59 533.171 1307.04C797.393 1152.68 975.034 866.274 975.034 538.185C975.034 537.124 974.983 536.075 974.983 535.015C973.326 534.026 971.754 532.922 970.081 531.955C972.018 517.395 973.029 502.564 973.53 487.618C970.514 433.814 962.774 381.29 950.616 330.465C890.964 153.906 723.711 27.095 527.106 27.9505Z" fill="none" opacity="1" stroke="#310024" stroke-linecap="round" stroke-linejoin="round" stroke-width="40" vectornator:layerName="path"/>
<g opacity="1" vectornator:layerName="path">
<clipPath clip-rule="nonzero" id="ClipPath_2">
<path d="M527.106 27.9505C338.76 28.7713 178.363 146.491 114.112 312.051C97.7018 374.653 87.7724 439.892 85.464 507.089C85.865 512.311 86.2227 517.549 86.7987 522.721C86.2507 523 85.7316 523.328 85.1845 523.611C85.1071 528.469 84.9636 533.308 84.9636 538.185C84.9636 862.214 258.269 1145.53 517.094 1301.2C517.983 1300.67 518.934 1300.24 519.82 1299.7C524.182 1302.29 528.714 1304.59 533.171 1307.04C797.393 1152.68 975.034 866.274 975.034 538.185C975.034 537.124 974.983 536.075 974.983 535.015C973.326 534.026 971.754 532.922 970.081 531.955C972.018 517.395 973.029 502.564 973.53 487.618C970.514 433.814 962.774 381.29 950.616 330.465C890.964 153.906 723.711 27.095 527.106 27.9505Z"/>
</clipPath>
<g clip-path="url(#ClipPath_2)">
<path d="M83.9967 474.895C82.9262 229.11 281.306 28.9947 527.09 27.9233C772.874 26.8528 972.995 225.232 974.065 471.017C975.136 716.801 776.755 916.916 530.969 917.989C285.184 919.059 85.0689 720.68 83.9967 474.895Z" fill="url(#LinearGradient_2)" fill-rule="nonzero" opacity="1" stroke="#310024" stroke-linecap="round" stroke-linejoin="round" stroke-width="40" vectornator:layerName="Oval 1"/>
<path d="M-155.799 920.981C-156.87 675.197 41.5094 475.08 287.294 474.009C533.079 472.939 733.195 671.318 734.266 917.102C735.338 1162.89 536.957 1363.01 291.172 1364.08C45.3879 1365.15-154.727 1166.77-155.799 920.981Z" fill="url(#LinearGradient_3)" fill-rule="nonzero" opacity="1" stroke="#310024" stroke-linecap="round" stroke-linejoin="round" stroke-width="40" vectornator:layerName="Oval 2"/>
<path d="M302.046 918.985C300.975 673.201 499.355 473.086 745.139 472.013C990.922 470.943 1191.05 669.322 1192.12 915.107C1193.19 1160.89 994.804 1361 749.019 1362.07C503.233 1363.15 303.118 1164.77 302.046 918.985Z" fill="url(#LinearGradient_4)" fill-rule="nonzero" opacity="1" stroke="#310024" stroke-linecap="round" stroke-linejoin="round" stroke-width="40" vectornator:layerName="Oval 3"/>
</g>
</g>
</g>
</g>
</g>
</g>
<path d="M95 530C95 289.756 289.756 95 530 95C770.244 95 965 289.756 965 530C965 770.244 770.244 965 530 965C289.756 965 95 770.244 95 530Z" fill="none" opacity="1" stroke="#310024" stroke-linecap="round" stroke-linejoin="round" stroke-width="40" vectornator:layerName="Oval 1"/>
</g>
</svg>

<svg xmlns="http://www.w3.org/2000/svg" xmlns:vectornator="http://vectornator.io" xml:space="preserve" stroke-miterlimit="10" style="fill-rule:nonzero;clip-rule:evenodd;stroke-linecap:round;stroke-linejoin:round" viewBox="0 0 1060 1060"><defs><linearGradient id="b" x1="179" x2="845" y1="512" y2="512" gradientTransform="translate(-154.261 -16.766) scale(1.33644)" gradientUnits="userSpaceOnUse"><stop offset="0" stop-color="#ffbd59"/><stop offset="1" stop-color="#ff6b11"/></linearGradient><linearGradient id="d" x1="178.274" x2="844.274" y1="366.436" y2="366.436" gradientTransform="translate(-154.261 -16.766) scale(1.33644)" gradientUnits="userSpaceOnUse"><stop offset="0" stop-color="#ffbd59"/><stop offset="1" stop-color="#ff6b11"/></linearGradient><linearGradient id="e" x1="-1.154" x2="664.846" y1="700.221" y2="700.221" gradientTransform="translate(-154.261 -16.766) scale(1.33644)" gradientUnits="userSpaceOnUse"><stop offset="0" stop-color="#ff1148"/><stop offset="1" stop-color="#ee3cff"/></linearGradient><linearGradient id="f" x1="341.43" x2="1007.43" y1="698.728" y2="698.728" gradientTransform="translate(-154.261 -16.766) scale(1.33644)" gradientUnits="userSpaceOnUse"><stop offset="0" stop-color="#00d2ff"/><stop offset="1" stop-color="#2aff75"/></linearGradient></defs><g vectornator:layerName="Layer 1"><g vectornator:layerName="Group 4"><path vectornator:layerName="path" fill="none" stroke="#310024" stroke-width="40" d="M95 530C95 289.756 289.756 95 530 95s435 194.756 435 435-194.756 435-435 435S95 770.244 95 530Z"/><g vectornator:layerName="path"><clipPath id="a" clip-rule="nonzero"><path d="M95 530C95 289.756 289.756 95 530 95s435 194.756 435 435-194.756 435-435 435S95 770.244 95 530Z"/></clipPath><g clip-path="url(#a)"><path vectornator:layerName="path" fill="url(#b)" stroke="#310024" stroke-width="40" d="M527.106 27.95c-188.346.821-348.743 118.541-412.994 284.101-16.41 62.602-26.34 127.841-28.648 195.038.401 5.222.759 10.46 1.335 15.632-.548.279-1.067.607-1.615.89-.077 4.858-.22 9.697-.22 14.574 0 324.029 173.305 607.345 432.13 763.015.889-.53 1.84-.96 2.726-1.5 4.362 2.59 8.894 4.89 13.351 7.34 264.222-154.36 441.863-440.766 441.863-768.855 0-1.061-.051-2.11-.051-3.17-1.657-.989-3.229-2.093-4.902-3.06 1.937-14.56 2.948-29.391 3.449-44.337-3.016-53.804-10.756-106.328-22.914-157.153-59.652-176.559-226.905-303.37-423.51-302.514Z" opacity=".332"/><g vectornator:layerName="path"><path vectornator:layerName="path" fill="none" stroke="#310024" stroke-width="40" d="M527.106 27.95c-188.346.821-348.743 118.541-412.994 284.101-16.41 62.602-26.34 127.841-28.648 195.038.401 5.222.759 10.46 1.335 15.632-.548.279-1.067.607-1.615.89-.077 4.858-.22 9.697-.22 14.574 0 324.029 173.305 607.345 432.13 763.015.889-.53 1.84-.96 2.726-1.5 4.362 2.59 8.894 4.89 13.351 7.34 264.222-154.36 441.863-440.766 441.863-768.855 0-1.061-.051-2.11-.051-3.17-1.657-.989-3.229-2.093-4.902-3.06 1.937-14.56 2.948-29.391 3.449-44.337-3.016-53.804-10.756-106.328-22.914-157.153-59.652-176.559-226.905-303.37-423.51-302.514Z"/><g vectornator:layerName="path"><clipPath id="c" clip-rule="nonzero"><path d="M527.106 27.95c-188.346.821-348.743 118.541-412.994 284.101-16.41 62.602-26.34 127.841-28.648 195.038.401 5.222.759 10.46 1.335 15.632-.548.279-1.067.607-1.615.89-.077 4.858-.22 9.697-.22 14.574 0 324.029 173.305 607.345 432.13 763.015.889-.53 1.84-.96 2.726-1.5 4.362 2.59 8.894 4.89 13.351 7.34 264.222-154.36 441.863-440.766 441.863-768.855 0-1.061-.051-2.11-.051-3.17-1.657-.989-3.229-2.093-4.902-3.06 1.937-14.56 2.948-29.391 3.449-44.337-3.016-53.804-10.756-106.328-22.914-157.153-59.652-176.559-226.905-303.37-423.51-302.514Z"/></clipPath><g stroke="#310024" stroke-width="40" clip-path="url(#c)"><path vectornator:layerName="Oval 1" fill="url(#d)" d="M83.997 474.895C82.927 229.11 281.306 28.995 527.09 27.923c245.784-1.07 445.905 197.309 446.975 443.094 1.071 245.784-197.31 445.899-443.096 446.972-245.785 1.07-445.9-197.309-446.972-443.094Z"/><path vectornator:layerName="Oval 2" fill="url(#e)" d="M-155.799 920.981C-156.87 675.197 41.509 475.08 287.294 474.009c245.785-1.07 445.901 197.309 446.972 443.093 1.072 245.788-197.309 445.908-443.094 446.978-245.784 1.07-445.899-197.31-446.971-443.099Z"/><path vectornator:layerName="Oval 3" fill="url(#f)" d="M302.046 918.985c-1.071-245.784 197.309-445.899 443.093-446.972 245.783-1.07 445.911 197.309 446.981 443.094 1.07 245.783-197.316 445.893-443.101 446.963-245.786 1.08-445.901-197.3-446.973-443.085Z"/></g></g></g></g></g></g><path vectornator:layerName="Oval 1" fill="none" stroke="#310024" stroke-width="40" d="M95 530C95 289.756 289.756 95 530 95s435 194.756 435 435-194.756 435-435 435S95 770.244 95 530Z"/></g></svg>
